X:60
T: At the Height of Boredom
C: Eamon Flynn
Z: B.Black
R: reel
M: 4/4
L: 1/8
K: Edor
ED | BE (3EDE DAFD | B,EDB, EDB,A |\
Be (3eee fedB | edBA FEDE |
BE (3EDE DAFD | B,EDB, EDB,A |\
Be (3eee fedB | AFDB, E2 :|
FA | Beed edea | bafd edfd |\
A2 FA DAFA | fedf edBA |
BeeB eBea | bafd edBd |\
AF (3FEF dBAF | DEFD E2 :|
